packages/sources/icons/src/vitamix/snowy-fill.svg

<svg width="16" height="16" viewBox="0 0 16 16" xmlns="http://www.w3.org/2000/svg"><path d="M4.01803 11.62C2.86828 11.1585 1.91498 10.3113 1.3217 9.22365C0.728417 8.13602 0.532136 6.87582 0.766535 5.65928C1.00093 4.44273 1.6514 3.34569 2.60633 2.55636C3.56126 1.76704 4.76112 1.33465 6.00003 1.33337C7.07474 1.33331 8.12441 1.65781 9.01158 2.26436C9.89875 2.87092 10.5821 3.73126 10.972 4.73271C11.9104 4.64463 12.8467 4.92128 13.5865 5.50523C14.3263 6.08918 14.8128 6.93559 14.9451 7.86876C15.0773 8.80193 14.8452 9.75019 14.2968 10.5167C13.7484 11.2833 12.9259 11.8092 12 11.9854C11.9967 10.9585 11.5986 9.97213 10.8881 9.23068C10.1776 8.48923 9.20913 8.04944 8.18328 8.0024C7.15743 7.95536 6.15278 8.30468 5.3774 8.978C4.60201 9.65132 4.11529 10.5971 4.01803 11.6194V11.62ZM8.6667 10.8447L9.97603 10.0887L10.6427 11.2434L9.33337 12L10.6427 12.756L9.97603 13.9107L8.6667 13.1547V14.6667H7.33337V13.1547L6.02403 13.9107L5.35737 12.756L6.6667 12L5.35737 11.244L6.02403 10.0894L7.33337 10.8454V9.33337H8.6667V10.8454V10.8447Z"/></svg>

<svg width="16" height="16" xmlns="http://www.w3.org/2000/svg"><path d="M4.018 11.62A5.335 5.335 0 0 1 6 1.333a5.335 5.335 0 0 1 4.972 3.4A3.667 3.667 0 0 1 12 11.985a4 4 0 0 0-7.982-.366v.001Zm4.649-.775 1.309-.756.667 1.154-1.31.757 1.31.756-.667 1.155-1.31-.756v1.512H7.334v-1.512l-1.309.756-.667-1.155L6.667 12l-1.31-.756.667-1.155 1.31.756V9.333h1.333v1.512Z"/></svg>
